dist/upp/assets/img/cases/11.svg

<svg width="25" height="24" viewBox="0 0 25 24" fill="none" xmlns="http://www.w3.org/2000/svg">
<g id="5404333_dish_plate_restaurant_icon 1">
<g id="Group">
<path id="Vector" d="M11.582 6.1H13.082C13.3298 6.1 13.544 6.01699 13.6965 5.86446C13.849 5.71193 13.932 5.49772 13.932 5.25C13.932 5.00228 13.849 4.78807 13.6965 4.63554C13.544 4.48301 13.3298 4.4 13.082 4.4H11.582C11.3343 4.4 11.1201 4.48301 10.9676 4.63554C10.815 4.78807 10.732 5.00228 10.732 5.25C10.732 5.49772 10.815 5.71193 10.9676 5.86446C11.1201 6.01699 11.3343 6.1 11.582 6.1Z" fill="#D8DEFD" stroke="#D8DEFD" stroke-width="0.2"/>
<path id="Vector_2" d="M22.8503 15.3434L22.8461 15.3307L22.8387 15.3196C22.7528 15.1908 22.6267 15.0869 22.4935 15.0151C22.3607 14.9436 22.2133 14.9 22.0805 14.9H21.3442C20.9269 11.5898 18.2166 8.30712 14.7608 7.25476C13.166 6.72344 11.4197 6.72348 9.8248 7.25486C6.44566 8.30661 3.66073 11.5876 3.31476 14.9H2.58047C2.44768 14.9 2.30019 14.9436 2.16743 15.0151C2.03422 15.0869 1.90811 15.1908 1.82226 15.3196C1.65106 15.5764 1.64988 15.9172 1.81872 16.1752C2.88708 18.3069 5.02081 19.6 7.45547 19.6H17.2805C19.642 19.6 21.8531 18.3047 22.9205 16.0935L22.9305 16.0729V16.05V16.0437C22.9305 15.8227 22.9305 15.5839 22.8503 15.3434ZM5.02145 14.9C5.43733 12.2808 7.63384 9.74724 10.335 8.8706C11.5912 8.50142 12.996 8.50153 14.2521 8.87094C16.9517 9.67358 19.2214 12.2783 19.6394 14.9H5.02145ZM17.2055 17.9H7.45547C6.21284 17.9 5.10188 17.4466 4.24148 16.6H20.4195C19.5591 17.4466 18.4481 17.9 17.2055 17.9Z" fill="#D8DEFD" stroke="#D8DEFD" stroke-width="0.2"/>
</g>
</g>
</svg>

<svg width="25" height="24" fill="none" xmlns="http://www.w3.org/2000/svg"><g id="5404333_dish_plate_restaurant_icon 1"><g id="Group" fill="#D8DEFD" stroke="#D8DEFD" stroke-width=".2"><path id="Vector" d="M11.582 6.1h1.5a.85.85 0 00.614-.236.85.85 0 00.236-.614.85.85 0 00-.236-.614.85.85 0 00-.614-.236h-1.5a.85.85 0 00-.614.236.85.85 0 00-.236.614.85.85 0 00.236.614.85.85 0 00.614.236z"/><path id="Vector_2" d="M22.85 15.343l-.004-.012-.007-.011a.968.968 0 00-.345-.305.902.902 0 00-.413-.115h-.737c-.417-3.31-3.127-6.593-6.583-7.645a7.841 7.841 0 00-4.936 0c-3.38 1.052-6.164 4.333-6.51 7.645H2.58a.902.902 0 00-.413.115.967.967 0 00-.345.305.781.781 0 00-.003.855C2.887 18.307 5.02 19.6 7.455 19.6h9.825c2.362 0 4.573-1.295 5.64-3.507l.01-.02v-.029c0-.221 0-.46-.08-.7zM5.021 14.9c.416-2.62 2.613-5.153 5.314-6.03a7.063 7.063 0 013.917 0c2.7.804 4.97 3.408 5.387 6.03H5.021zm12.184 3h-9.75c-1.242 0-2.353-.453-3.214-1.3H20.42c-.86.847-1.97 1.3-3.213 1.3z"/></g></g></svg>
